!!!COM: Schiørring, Niels
!!!CDT: 1743-1798
!!!OPR@@DA: Choral-Bog
!!!ONM: 92
!!!OTL@@DA: Store Gud! ſom dig til Ære
**kern	**fb	**kern	**kern	**kern	**kern	**kern	**kern	**kern
*part6	*part6	*part6	*part5	*part5	*part4	*part3	*part2	*part1
*staff8	*	*staff7	*staff6	*staff5	*staff4	*staff3	*staff2	*staff1
*clefF4	*	*clefC1	*clefF4	*clefC1	*clefF4	*clefC4	*clefC3	*clefC1
*mclefF4	*	*mclefG2	*mclefF4	*mclefG2	*mclefF4	*mclefGv2	*mclefG2	*mclefG2
*k[]	*	*k[]	*k[]	*k[]	*k[]	*k[]	*k[]	*k[]
*M3/2	*	*M3/2	*M3/2	*M3/2	*M3/2	*M3/2	*M3/2	*M3/2
=1	=1	=1	=1	=1	=1	=1	=1	=1
*	*	*	*^	*^	*	*	*	*
2D	.	1d	2D	2F	1d	1A	(2D	(2F	1A	1d
2F	6	.	2F	2A	.	.	2F)	2A)	.	.
2D	.	2d	2D	2F	2d	2A	2D	2F	2d	2d
=2	=2	=2	=2	=2	=2	=2	=2	=2	=2	=2
*	*	*	*	*	*	*^	*	*	*	*
2C#X	6	1a	2C#X	2A	1a	2ryy	2e\	(2C#X	(2A	(2e	1a
*	*	*	*v	*v	*	*	*	*	*	*	*
2Cn	#4|	.	2Cn	.	2d	2f#X\	2Cn)	2d)	2f#X)	.
2BB-X	#6\	2dd	2BB-X	2dd	2d	2g#X\	2BB-X	2d	2g#X	2dd
=3	=3	=3	=3	=3	=3	=3	=3	=3	=3	=3
1.AA	#	1cc#X	1.AA	1cc#X	1e	1a\	1AA	1e	1a	1cc#X
.	.	2cc#	.	2cc#	2e	2a\	2AA	2e	2a	2cc#
=4	=4	=4	=4	=4	=4	=4	=4	=4	=4	=4
1.D	.	1dd	1.D	1dd	1f	1a\	1D	1f	1a	1dd
.	.	2dd	.	2dd	2f	2a\	2D	2f	2a	2dd
=5	=5	=5	=5	=5	=5	=5	=5	=5	=5	=5
*	*	*	*	*	*	*	*^	*	*	*
2BB	5	1ff	2BB	1ff	1g	2dd\	(2B	2BB	(2d	1g	1ff
2GG	7	.	2GG	.	.	2b\	2G)	2GG	2B)	.	.
2C	.	2ee	2C	2ee	2g	[2cc\	2c	2C	[2c	2g	2ee
=6	=6	=6	=6	=6	=6	=6	=6	=6	=6	=6	=6
2FF#X	5	1dd	2FF#X	1dd	2a	2cc\]	(2F#X	2FF#X	(2c]	(2a	1dd
2GG#X	5	.	2GG#X	.	2e	2b\	2G#X)	2GG#X	2B)	2e)	.
2AA	.	2cc	2AA	2cc	2e	[2a\	2A	2AA	2A	2e	2cc
=7	=7	=7	=7	=7	=7	=7	=7	=7	=7	=7	=7
2D	6 5	1b	2D	1b	2fni	1a\]	(2D	2D	1A	(2f	1b
2E	4	.	2E	.	2e	.	2E)	2E	.	2e)	.
2EE	#	2b	2EE	2b	2d	2g#X\	2E	2EE	2G#X	2d	2b
*	*	*	*	*	*	*	*v	*v	*	*	*
=8	=8	=8	=8	=8	=8	=8	=8	=8	=8	=8
1.AA	.	1.a	1.AA	1.a	1.c	1.e\	1.AA	1.A	1.c	1.a
=9:|!	=9:|!	=9:|!	=9:|!	=9:|!	=9:|!	=9:|!	=9:|!	=9:|!	=9:|!	=9:|!
1F	.	1a	1F	1a	1c	1f\	1F	1A	1c	1a
2D	.	2a	2D	2a	2d	2f\	2D	2F	2d	2a
=10	=10	=10	=10	=10	=10	=10	=10	=10	=10	=10
1AA	6	1cc	1AA	1cc	1c	1f\	1AA	1F	1c	1cc
*	*	*	*^	*	*	*	*	*	*	*
2A	.	2f	2A	2A	2f	2ryy	2c\	2A	2F	2c	2f
*	*	*	*	*	*v	*v	*v	*	*	*	*
=11	=11	=11	=11	=11	=11	=11	=11	=11	=11
*	*	*	*	*^	*	*	*	*	*
1G	6 -	1e	1G	1ryy	1B-X/	1e	1G	1G	1B-X	1e
*	*	*	*	*v	*v	*^	*	*	*	*
2F	.	2f	2F	4A	2f	2c	2F	2A	(4c	2f
.	.	.	.	[4F	.	.	.	.	[4f)	.
=12	=12	=12	=12	=12	=12	=12	=12	=12	=12	=12
2BB	5	1g	2BBni	4F]	1g	1d	2BB	1d	(4f]	1g
.	.	.	.	4D	.	.	.	.	4d)	.
1C	9	.	1C	1E	.	.	1C	.	1e	.
.	8	2g	.	.	2g	2c	.	2c	.	2g
=13	=13	=13	=13	=13	=13	=13	=13	=13	=13	=13
*	*	*	*	*	*	*^	*	*	*	*
1BB-X	6	1g	1BB-X	1G	1g	1ryy	1d\	1BB-X	1d	1d	1g
*	*	*	*v	*v	*	*	*	*	*	*	*
2GG	-	2g	2GG	2g	2B-X	2d\	2GG	2B-X	2d	2g
=14	=14	=14	=14	=14	=14	=14	=14	=14	=14	=14
1E-X	.	1g	1E-X	1g	1B-X	2e-X\	1E-X	1B-X	2e-X	1g
.	.	.	.	.	.	1g\	.	.	[1g	.
2D	6 4	2b-X	2D	2b-X	2d	.	2D	2d	.	2b-X
=15	=15	=15	=15	=15	=15	=15	=15	=15	=15	=15
2C#X	5	1a	2C#X	1a	2eni	1g\	2C#X	(2e	1g]	1a
*	*	*	*^	*	*	*	*	*	*	*
1D	4	.	1D	2d	.	2ryy	.	1D	2d)	.	.
.	#	2a	.	2cni	2a	2ryy	2f#X\	.	2c	2f#X	2a
*	*	*	*v	*v	*	*	*	*	*	*	*
=16	=16	=16	=16	=16	=16	=16	=16	=16	=16	=16
1.GG	-	1.g	1.GG	1.g	1.B-X	1.d\	1.GG	1.B-X	1.g	1.g
=17	=17	=17	=17	=17	=17	=17	=17	=17	=17	=17
1F	6	1a	1F	1a	1d	1f\	1F	1d	1d	1a
2C#X	5	2a	2C#X	2a	2e	2g\	2C#X	2e	2g	2a
=18	=18	=18	=18	=18	=18	=18	=18	=18	=18	=18
1D	#	1a	1D	1a	1d	1f#X\	1D	1d	1f#X	1a
2AA	#6\	2ccni	2AA	2ccni	2cni	2f#\	2AA	2c	2f#	2cc
=19	=19	=19	=19	=19	=19	=19	=19	=19	=19	=19
2GG	-	1b-X	2GG	1b-X	2d	1g\	(2GG	(2d	1g	1b-X
2C	-7 5 -	.	2C	.	2.e-X	.	2C)	2.e-X)	.	.
2D	-9 #	2a	2D	2a	.	2f#X\	2D	.	2f#X	2a
.	8	.	.	.	8dL	.	.	8dL	.	.
.	7	.	.	.	8cJ	.	.	8cJ	.	.
=20	=20	=20	=20	=20	=20	=20	=20	=20	=20	=20
1.E-X	.	1.g	1.E-X	1.g	1.B-X	1.g\	1.E-X	1.B-X	1.g	1.g
*	*	*	*	*	*v	*v	*	*	*	*
=21	=21	=21	=21	=21	=21	=21	=21	=21	=21
*	*	*	*^	*	*	*	*	*	*
1BB-X	6	1d	1BB-X	1G	1d	1B-X	1BB-X	1G	1B-X	1d
2BB-	4 2	2eni	2BB-	2G	2eni	2c	2BB-	2G	2c	2e
=22	=22	=22	=22	=22	=22	=22	=22	=22	=22	=22
2AA	6	1f	2AA	2A	1f	2c	(2AA	(2A	(2c	1f
2BBni	5	.	2BBni	1G	.	2d	2BBni)	2G)	2d)	.
2C	8	2e	2C	.	2e	4c	2C	2G	(4c	2e
.	-7	.	.	.	.	4B-X	.	.	4B-X)	.
=23	=23	=23	=23	=23	=23	=23	=23	=23	=23	=23
2D	5_ 3_	1f	2D	2F	1f	2A	(2D	(2F	(2A	1f
2C	.	.	2C	2A	.	1d	2C)	2A)	2d)	.
2BB-X	6	2g	2BB-X	2B-X	2g	.	2BB-X	2d	2d	2g
=24	=24	=24	=24	=24	=24	=24	=24	=24	=24	=24
1.AA	4	1a	1.AA	1.E	1a	1d	1AA	1d	1e	1a
.	#	2a	.	.	2a	2c#X	2AA	2c#X	2e	2a
=25	=25	=25	=25	=25	=25	=25	=25	=25	=25	=25
*	*	*	*	*	*	*^	*	*	*	*
1D	.	1f	1D	2F	1f	2ryy	2A\	1D	1A	1d	1f
.	.	.	.	2A	.	2ryy	2d\	.	.	.	.
*	*	*	*v	*v	*	*	*	*	*	*	*
2E	6	2g	2E	2g	2cni	2cni/	2E	2G	2c	2g
=26	=26	=26	=26	=26	=26	=26	=26	=26	=26	=26
1F	.	1a	1F	1a	1c	1f\	1F	1F	1c	1a
2C	.	2g	2C	2g	2c	2e\	2C	2E	2c	2g
=27	=27	=27	=27	=27	=27	=27	=27	=27	=27	=27
*	*	*	*^	*	*	*	*	*	*	*
2F	.	1a	2F	2F	1a	2ryy	2f\	(2F	(2F	(2c	1a
*	*	*	*v	*v	*	*	*	*	*	*	*
2D	.	.	2D	.	2f	2a\	2D)	2A)	2f)	.
2BB-X	#6\	2dd	2BB-X	2dd	2d	2g#X\	2BB-X	2G#X	2d	2dd
=28	=28	=28	=28	=28	=28	=28	=28	=28	=28	=28
1.AA	#	1.cc#X	1.AA	1.cc#X	1.e	1.a\	1.AA	1.A	1.e	1.cc#X
*	*	*	*	*	*v	*v	*	*	*	*
=29	=29	=29	=29	=29	=29	=29	=29	=29	=29
*	*	*	*^	*	*	*	*	*	*
2F#X	5	1dd	2F#X	2cni	1dd	2a	(2F#X	(2c	(2a	1dd
2Fn	nr4	.	2Fn	2B	.	1g	2Fn)	2B)	2g)	.
2E	#6\	2ee	2E	2c#X	2ee	.	2E	2c#X	2g	2ee
=30	=30	=30	=30	=30	=30	=30	=30	=30	=30	=30
2D	.	1ff	2D	1d	1ff	2a	(2D	1d	1f	1ff
2B-X	.	.	2B-X	.	.	2f	2B-X)	.	.	.
2A	6 4	2ff	2A	2d	2ff	2a	2A	2d	2a	2ff
=31	=31	=31	=31	=31	=31	=31	=31	=31	=31	=31
2G#X	5	1ee	2G#X	1d	1ee	2bni	(2G#X	1d	(2b	1ee
2A	4	.	1A	.	.	1a	2A)	.	2a)	.
2AA	#	2ee	.	2c#X	2ee	.	2AA	2c#X	2g	2ee
=32	=32	=32	=32	=32	=32	=32	=32	=32	=32	=32
*	*	*	*	*	*	*^	*	*	*	*
1.D	.	1.dd	1.D	1.d	1.dd	1.a	1.f\	1.D	1.d	1.f	1.dd
*	*	*	*v	*v	*	*	*	*	*	*	*
*	*	*	*	*v	*v	*v	*	*	*	*
==	==	==	==	==	==	==	==	==
*-	*-	*-	*-	*-	*-	*-	*-	*-
!!!system-decoration: {(s1,s2,s3,s4)}{(s5,s6)}{(s7,s8)}
!!!RDF**kern: i = editorial accidental
!!!RDF**kern: > = above
!!!RDF**kern: < = below
!!!AGN: chorale
!!!EED: Derek Remeš
!!!EED2: Victor Phan
!!!END: 2023/11/28
!!!ENC: Wolfgang Drescher
!!!EEV: 2023/12/08
!!!title: @{ONM}. @{OTL}
!!!verovio: mnumInterval 1